images/shortcut-icon.svg

<svg width="100" height="100" viewBox="0 0 100 100" fill="none" xmlns="http://www.w3.org/2000/svg">
<path fill-rule="evenodd" clip-rule="evenodd" d="M58.5999 50C58.5999 56.9364 56.292 63.3338 52.4021 68.4661C57.3281 73.7186 64.3308 77 72.1 77C87.0117 77 99.1 64.9117 99.1 50C99.1 35.0883 87.0117 23 72.1 23C64.3308 23 57.3281 26.2814 52.4021 31.5339C56.292 36.6662 58.5999 43.0636 58.5999 50ZM83.8002 62.6001C87.2796 62.6001 90.1002 59.7795 90.1002 56.3001C90.1002 52.8207 87.2796 50.0001 83.8002 50.0001C80.3208 50.0001 77.5002 52.8207 77.5002 56.3001C77.5002 59.7795 80.3208 62.6001 83.8002 62.6001Z" fill="black"/>
<path fill-rule="evenodd" clip-rule="evenodd" d="M28 77C42.9117 77 55 64.9117 55 50C55 35.0883 42.9117 23 28 23C13.0883 23 1 35.0883 1 50C1 64.9117 13.0883 77 28 77ZM39.7001 62.6001C43.1795 62.6001 46.0001 59.7795 46.0001 56.3001C46.0001 52.8207 43.1795 50.0001 39.7001 50.0001C36.2207 50.0001 33.4001 52.8207 33.4001 56.3001C33.4001 59.7795 36.2207 62.6001 39.7001 62.6001Z" fill="black"/>
</svg>

<?xml version="1.0" encoding="utf-8"?>
<!-- Generator: Adobe Illustrator 27.0.0, SVG Export Plug-In . SVG Version: 6.00 Build 0)  -->
<svg version="1.1" id="图层_1" xmlns="http://www.w3.org/2000/svg" xmlns:xlink="http://www.w3.org/1999/xlink" x="0px" y="0px"
	 viewBox="0 0 100 100" style="enable-background:new 0 0 100 100;" xml:space="preserve">
<style type="text/css">
	.st0{fill-rule:evenodd;clip-rule:evenodd;}
	.st1{fill-rule:evenodd;clip-rule:evenodd;fill:#FFFFFF;}
</style>
<path class="st0" d="M58.6,50c0,6.9-2.3,13.3-6.2,18.5c4.9,5.3,11.9,8.5,19.7,8.5c14.9,0,27-12.1,27-27S87,23,72.1,23
	c-7.8,0-14.8,3.3-19.7,8.5C56.3,36.7,58.6,43.1,58.6,50z M83.8,62.6c3.5,0,6.3-2.8,6.3-6.3c0-3.5-2.8-6.3-6.3-6.3s-6.3,2.8-6.3,6.3
	C77.5,59.8,80.3,62.6,83.8,62.6z"/>
<path class="st0" d="M28,77c14.9,0,27-12.1,27-27S42.9,23,28,23S1,35.1,1,50S13.1,77,28,77z M39.7,62.6c3.5,0,6.3-2.8,6.3-6.3
	c0-3.5-2.8-6.3-6.3-6.3s-6.3,2.8-6.3,6.3C33.4,59.8,36.2,62.6,39.7,62.6z"/>
<circle class="st1" cx="83.8" cy="56.3" r="6.3"/>
<circle class="st1" cx="39.7" cy="56.3" r="6.3"/>
</svg>
